dist/assets/window-center.svg

<svg width="140" height="212" viewBox="0 0 140 212" version="1.1" xmlns="http://www.w3.org/2000/svg" xmlns:xlink="http://www.w3.org/1999/xlink">
<title>Group 2.1</title>
<desc>Created using Figma</desc>
<g id="Canvas" transform="translate(-134 -349)">
<g id="Group 2.1">
<g id="Vector">
<use xlink:href="#path0_fill" transform="translate(139.259 363.351)" fill="#E9E3D7"/>
</g>
<g id="Vector">
<use xlink:href="#path1_fill" transform="translate(144.845 368.438)" fill="#F7FCFF"/>
</g>
<g id="Vector">
<use xlink:href="#path2_fill" transform="translate(134 356.085)" fill="#736D91"/>
</g>
<g id="Vector">
<use xlink:href="#path3_fill" transform="translate(138.715 349)" fill="#E9E3D7"/>
</g>
<g id="Vector">
<use xlink:href="#path2_fill" transform="translate(134 551.554)" fill="#BAB7CC"/>
</g>
<g id="Vector">
<use xlink:href="#path4_fill" transform="translate(142.269 366.985)" fill="#BAB7CC"/>
</g>
<g id="Vector">
<use xlink:href="#path5_stroke" transform="translate(149.523 374.978)" fill="#201849"/>
</g>
<g id="Vector">
<use xlink:href="#path5_stroke" transform="translate(149.523 382.971)" fill="#201849"/>
</g>
<g id="Vector">
<use xlink:href="#path5_stroke" transform="translate(149.523 393.144)" fill="#201849"/>
</g>
<g id="Vector">
<use xlink:href="#path6_stroke" transform="translate(149.523 401.355)" fill="#201849"/>
</g>
<g id="Mask Group">
<mask id="mask0_alpha" mask-type="alpha">
<g id="Vector">
<use xlink:href="#path7_fill" transform="matrix(-1 0 0 1 264 368)" fill="#F7FCFF"/>
</g>
</mask>
<g id="Group" mask="url(#mask0_alpha)">
<g id="Group">
<g id="Group">
<g id="Group">
<g id="Vector">
<use xlink:href="#path8_fill" transform="matrix(-1 0 0 1 245.855 531.171)" fill="#2EB5FF"/>
</g>
</g>
</g>
</g>
</g>
</g>
<g id="Group">
<g id="Group">
<g id="Group">
<g id="Group">
<g id="Vector">
<use xlink:href="#path9_fill" transform="matrix(-1 0 0 1 230.418 442.736)" fill="#201849"/>
</g>
</g>
<g id="Vector">
<use xlink:href="#path10_fill" transform="matrix(-1 0 0 1 229.823 447.17)" fill="#BAB7CC"/>
</g>
</g>
<g id="Group">
<g id="Group">
<g id="Group">
<g id="Group">
<g id="Vector">
<use xlink:href="#path11_fill" transform="matrix(-1 0 0 1 241.503 450.981)" fill="#003C5D"/>
</g>
</g>
</g>
<g id="Group">
<g id="Group">
<g id="Group">
<g id="Vector">
<use xlink:href="#path12_fill" transform="matrix(-1 0 0 1 209.853 422.068)" fill="#FFDDBA"/>
</g>
</g>
</g>
<g id="Group">
<g id="Group">
<g id="Vector">
<use xlink:href="#path13_fill" transform="matrix(-1 0 0 1 213.615 415.452)" fill="#FCA664"/>
</g>
</g>
</g>
<g id="Group">
<g id="Group">
<g id="Group">
<g id="Group">
<g id="Group">
<g id="Vector">
<use xlink:href="#path14_fill" transform="matrix(-1 0 0 1 210.746 431.402)" fill="#22164C"/>
</g>
</g>
</g>
</g>
<g id="Group">
<g id="Group">
<g id="Group">
<g id="Vector">
<use xlink:href="#path15_fill" transform="matrix(-1 0 0 1 205.305 430.784)" fill="#22164C"/>
</g>
</g>
</g>
</g>
</g>
</g>
<g id="Group" opacity="0.2">
<g id="Group" opacity="0.2">
<g id="Vector" opacity="0.2">
<use xlink:href="#path16_fill" transform="matrix(-1 0 0 1 204.979 441.648)" fill="#22164C"/>
</g>
</g>
</g>
</g>
<g id="Group">
<g id="Group">
<g id="Vector">
<use xlink:href="#path17_fill" transform="matrix(-1 0 0 1 194.968 430.941)" fill="#FFDDBA"/>
</g>
</g>
</g>
</g>
</g>
<g id="Group">
<g id="Group">
<g id="Vector">
<use xlink:href="#path18_fill" transform="matrix(-1 0 0 1 250.69 446.689)" fill="#FFDDBA"/>
</g>
</g>
</g>
<g id="Group">
<g id="Vector">
<use xlink:href="#path19_fill" transform="matrix(-1 0 0 1 230.839 507.446)" fill="#FFFFFF"/>
</g>
<g id="Group">
<g id="Group">
<g id="Group">
<g id="Group">
<g id="Group">
<g id="Vector">
<use xlink:href="#path20_fill" transform="matrix(-1 0 0 1 231.02 507.228)" fill="#FFFFFF"/>
</g>
</g>
</g>
</g>
<g id="Group">
<g id="Group">
<g id="Group">
<g id="Vector">
<use xlink:href="#path21_fill" transform="matrix(-1 0 0 1 231.019 505.303)" fill="#FFFFFF"/>
</g>
</g>
<g id="Group">
<g id="Vector">
<use xlink:href="#path22_fill" transform="matrix(-1 0 0 1 231.165 505.157)" fill="#22164C"/>
</g>
</g>
</g>
</g>
</g>
<g id="Group">
<g id="Group">
<g id="Vector">
<use xlink:href="#path23_fill" transform="matrix(-1 0 0 1 229.497 512.278)" fill="#FFB077"/>
</g>
</g>
</g>
</g>
<g id="Group">
<g id="Group">
<g id="Vector">
<use xlink:href="#path24_fill" transform="matrix(-1 0 0 1 232.62 486.228)" fill="#FFDDBA"/>
</g>
</g>
</g>
<g id="Group">
<g id="Group">
<g id="Vector">
<use xlink:href="#path25_fill" transform="matrix(-1 0 0 1 220.942 514.021)" fill="#FFDDBA"/>
</g>
</g>
</g>
</g>
<g id="Group">
<g id="Group">
<g id="Vector">
<use xlink:href="#path26_fill" transform="matrix(-1 0 0 1 237.041 456.508)" fill="#22164C"/>
</g>
</g>
</g>
</g>
<g id="Vector">
<use xlink:href="#path27_stroke" transform="matrix(-1 0 0 1 208.025 432.565)" fill="#22164C"/>
</g>
<g id="Vector">
<use xlink:href="#path28_stroke" transform="matrix(-1 0 0 1 208.025 437.651)" fill="#22164C"/>
</g>
</g>
<g id="Vector">
<use xlink:href="#path29_stroke" transform="translate(142.451 367.53)" fill="#201849"/>
</g>
<g id="Vector">
<use xlink:href="#path30_fill" transform="translate(141.181 446.371)" fill="#201849"/>
</g>
</g>
</g>
<defs>
<path id="path0_fill" d="M 130.098 0L 0 0L 0 190.382L 130.098 190.382L 130.098 0Z"/>
<path id="path1_fill" d="M 118.891 0L 8.85484e-06 0L 8.85484e-06 180.209L 118.891 180.209L 118.891 0Z"/>
<path id="path2_fill" d="M 140 0L 0 0L 0 9.44644L 140 9.44644L 140 0Z"/>
<path id="path3_fill" d="M 130.57 0L 0 0L 0 6.90317L 130.57 6.90317L 130.57 0Z"/>
<path id="path4_fill" d="M 124.041 0L -4.42742e-06 0L -4.42742e-06 41.419L 124.041 41.419L 124.041 0Z"/>
<path id="path5_stroke" d="M -4.42742e-06 0.5468L 109.534 0.5468L 109.534 -0.5468L -4.42742e-06 -0.5468L -4.42742e-06 0.5468Z"/>
<path id="path6_stroke" d="M 0.00507381 1.56408L 109.539 0.546779L 109.529 -0.546774L -0.00508267 0.470531L 0.00507381 1.56408Z"/>
<path id="path7_fill" d="M 126 0L 9.3843e-06 0L 9.3843e-06 181L 126 181L 126 0Z"/>
<path id="path8_fill" d="M 71.9948 0.0363236C 71.9948 0.0363236 75.0777 8.21112 75.9844 13.879C 77.0362 20.5278 71.5958 75.7169 71.5958 75.7169L 71.9948 151.434L 54.4041 151.434L 48.8186 75.7169L 47.3679 23.0711L 23.9741 79.1321L 25.1347 150.998L 6.27461 151.434L 0 77.3882L 20.4559 0L 71.9948 0L 71.9948 0.0363236Z"/>
<path id="path9_fill" d="M 0.0503773 0.619129L 1.02963 7.5223C 1.13844 7.81296 1.46488 8.06729 1.79131 8.13995L 11.2214 10.6832C 11.7654 10.8649 12.0918 10.5379 11.9105 10.1019L 10.6773 3.70739C 10.5685 3.41673 10.2421 3.1624 9.91564 3.08973L 0.739483 0.0377957C 0.195442 -0.107534 -0.13097 0.183139 0.0503773 0.619129Z"/>
<path id="path10_fill" d="M 8.85484e-06 4.43512e-06L 0.253877 1.70764L 11.0622 4.46889L 10.7358 2.79761L 8.85484e-06 4.43512e-06Z"/>
<path id="path11_fill" d="M 0.00096948 28.8157C -0.0715694 28.961 3.95433 18.8969 8.99578 12.6841C 16.1409 3.89162 29.6331 2.51099 29.6331 2.51099C 29.6331 2.51099 29.6331 2.54733 29.6694 2.54733C 39.4621 -0.213937 48.4932 0.00405806 48.4932 0.00405806L 60.0269 2.83799C 60.4984 2.94698 61.0787 3.0923 61.6953 3.23763C 66.9181 4.58194 77.6175 6.72557 80.4828 11.3398C 87.6279 22.8935 85.0891 35.1739 85.0891 35.1739L 69.5657 35.1739L 68.1512 56.0651L 70.0009 81.0618L 41.7471 86.4027C 34.8196 87.7106 27.7471 87.8196 20.8196 86.7297L 13.4569 85.567C 13.4569 85.567 14.7626 56.1377 17.2652 32.776L 0.00096948 28.8157Z"/>
<path id="path12_fill" d="M 4.80143 30.4431L 5.88951 21.8323C 5.88951 21.8323 4.51126 21.2873 2.77032 20.9604C -1.61828 20.052 0.521637 5.19207 0.521637 5.19207C 0.521637 5.19207 3.06049 -1.12979 10.0605 0.178176C 17.0242 1.48615 22.1745 12.7492 21.7393 16.4551C 21.4491 18.9621 23.19 30.9155 23.19 30.9155L 6.65116 37.746L 4.80143 30.4431Z"/>
<path id="path13_fill" d="M 6.35169 11.2994L 12.7714 9.88242C 18.0667 16.7856 25.4657 22.9985 25.4657 22.9985C 25.4657 22.9985 27.7144 15.841 25.7558 10.2821C 23.4346 3.59692 12.2273 4.35991 12.2273 4.35991C 12.2273 4.35991 7.91128 5.2682 5.15481 5.52253C 4.28434 5.59519 2.3258 6.50351 2.68849 7.66615C 3.01491 8.75613 5.29988 8.68347 6.17035 8.7198C 9.0719 8.86513 11.9735 8.24747 14.5486 6.9395C 15.8543 6.28552 17.0874 5.41353 18.502 5.05021C 17.7403 3.08826 15.5641 2.03461 13.4605 1.88928C 12.5538 1.81661 11.6833 1.88928 10.7766 1.70762C 9.9061 1.52595 9.03563 1.01732 8.70921 0.181671C 8.05636 0.472331 7.69367 1.27163 7.87501 1.96195C 6.60558 2.10728 5.26362 1.34431 4.68331 0.181671C 4.103 0.581328 3.81283 1.3443 3.99418 2.03462C 3.45014 1.96195 2.86983 1.85296 2.4346 1.48963C 1.99937 1.12631 1.78175 0.435999 2.14445 8.87023e-06C 0.729941 1.34431 -0.0679955 3.34259 0.00454336 5.30454C 0.0408128 7.77515 3.74029 11.8807 6.35169 11.2994Z"/>
<path id="path14_fill" d="M 0.689128 1.38063C 1.06972 1.38063 1.37823 1.07157 1.37823 0.690321C 1.37823 0.30907 1.06972 -4.43512e-06 0.689128 -4.43512e-06C 0.308538 -4.43512e-06 0 0.30907 0 0.690321C 0 1.07157 0.308538 1.38063 0.689128 1.38063Z"/>
<path id="path15_fill" d="M 0.689128 1.38064C 1.06972 1.38064 1.37823 1.07157 1.37823 0.690317C 1.37823 0.309065 1.06972 -8.87023e-06 0.689128 -8.87023e-06C 0.308538 -8.87023e-06 0 0.309065 0 0.690317C 0 1.07157 0.308538 1.38064 0.689128 1.38064Z"/>
<path id="path16_fill" d="M 7.07255 0C 7.07255 0 4.96892 9.66444 8.85484e-06 10.7907L 0.979266 2.17995L 2.21244 2.03461C 3.37306 1.92561 4.53367 1.52596 5.58549 0.908312L 7.07255 0Z"/>
<path id="path17_fill" d="M 0 1.65987C 0 1.65987 1.55958 -0.374738 3.5544 0.0612517C 5.54922 0.497241 2.53886 4.34848 2.53886 4.34848L 0 1.65987Z"/>
<path id="path18_fill" d="M 15.5717 13.0163C 15.7168 11.8536 16.551 5.8588 17.5665 3.82418C 18.1831 2.58887 19.2349 1.71688 21.1572 0.990227C 22.608 0.481572 25.0743 0.00926762 25.0743 0.00926762C 25.2557 -0.0270649 25.437 0.0456001 25.5096 0.19093C 25.6184 0.408925 25.5095 0.699576 25.2557 0.772241L 23.0795 1.35355L 27.1054 0.990227C 27.4681 0.953894 27.8308 1.20823 27.9033 1.60788L 27.9759 2.00755C 28.0121 2.33455 27.8671 2.6252 27.5769 2.77053L 24.0588 4.33282L 26.4525 4.07849C 26.5976 4.04215 26.7427 4.18749 26.7064 4.33282C 26.7064 4.40548 26.6702 4.51449 26.5614 4.55083L 22.8619 6.18579L 22.7893 6.65811C 22.608 7.92974 21.9552 9.09237 20.9759 9.89168L 17.7479 35.1427L 26.38 37.141C 26.38 37.141 21.4111 68.7866 4.94478 61.9198C -9.20029 55.9976 11.038 20.1375 15.5717 13.0163Z"/>
<path id="path19_fill" d="M -8.85484e-06 -8.87023e-06L 0.870466 18.7112C 0.906736 19.5105 1.59586 20.1645 2.39379 20.1645L 9.43004 20.1645C 10.228 20.1645 10.9171 19.5105 10.9534 18.7112L 11.8238 -8.87023e-06L -8.85484e-06 -8.87023e-06Z"/>
<path id="path20_fill" d="M 11.3886 6.68518L 12.0052 0L -8.85484e-06 0L 0.616576 6.64884C 0.906731 9.7371 3.66322 12.0624 6.74612 11.6264C 6.81866 11.6264 6.89119 11.5901 6.96373 11.5901C 9.35751 11.1904 11.171 9.11946 11.3886 6.68518Z"/>
<path id="path21_fill" d="M 6.02073 3.85124C 9.34588 3.85124 12.0414 2.98911 12.0414 1.92562C 12.0414 0.86213 9.34588 4.43512e-06 6.02073 4.43512e-06C 2.69557 4.43512e-06 -8.85484e-06 0.86213 -8.85484e-06 1.92562C -8.85484e-06 2.98911 2.69557 3.85124 6.02073 3.85124Z"/>
<path id="path22_fill" d="M 6.16581 4.14191C 3.11917 4.14191 4.42742e-06 3.37892 4.42742e-06 2.07095C 4.42742e-06 0.762982 3.11917 -4.43512e-06 6.16581 -4.43512e-06C 9.21244 -4.43512e-06 12.3316 0.762982 12.3316 2.07095C 12.2953 3.37892 9.17617 4.14191 6.16581 4.14191ZM 6.16581 0.326997C 2.64767 0.326997 0.326416 1.2353 0.326416 2.07095C 0.326416 2.9066 2.68394 3.8149 6.16581 3.8149C 9.68394 3.8149 12.0052 2.9066 12.0052 2.07095C 12.0052 1.2353 9.64767 0.326997 6.16581 0.326997Z"/>
<path id="path23_fill" d="M 9.06735 2.28895C 9.06735 0.908316 7.03627 8.87023e-06 4.53367 8.87023e-06C 2.03108 8.87023e-06 -4.42742e-06 0.908316 -4.42742e-06 2.28895L 0.0362783 7.66615C 0.0362783 7.92048 0.0362694 10.3184 0.0725389 10.5728C 0.435233 14.4603 1.886 14.5693 4.46113 14.6056C 4.53367 14.6056 5.15026 14.5693 5.2228 14.5693C 7.29016 14.3877 8.6684 15.0053 8.84975 11.0451L 8.99481 4.79588C 9.06735 4.75955 9.06735 2.32528 9.06735 2.28895Z"/>
<path id="path24_fill" d="M 3.63038 38.5124L 12.1174 38.5124C 14.0397 38.7668 15.7806 38.5488 17.449 38.2581L 18.0294 38.1491L 21.5112 38.2581C 23.0708 38.4761 45.2677 38.6941 56.4387 40.0384C 70.076 41.637 76.2055 4.43512e-06 76.2055 4.43512e-06L 60.6822 4.43512e-06L 52.4127 26.1594L 20.4594 32.0816L 15.6356 30.9553L 2.21587 30.9189C 1.92571 30.9189 1.67183 31.2096 1.67183 31.5003C 1.67183 31.7909 1.88944 32.0089 2.14332 32.0452L 8.27287 33.0262L 0.620026 33.0262C 0.221062 33.0625 -0.0328285 33.3895 0.00344096 33.7892C 0.0397104 34.1162 0.366122 34.3705 0.692547 34.3705L 8.27287 34.8428L 1.20033 35.3152C 0.946442 35.3515 0.728816 35.5332 0.692547 35.7875C 0.656277 36.1145 0.910163 36.4415 1.23659 36.4415L 8.27287 36.8411L 3.63038 37.3861C 3.26769 37.3861 2.97752 37.7131 3.05006 38.0764C 3.15887 38.3308 3.3765 38.5124 3.63038 38.5124Z"/>
<path id="path25_fill" d="M 5.8074 3.70696C 5.8074 3.70696 0.874751 -0.0716257 0.475788 0.00103921C 0.0768239 0.0737042 -0.177071 0.291699 0.149354 0.909351C 0.475779 1.527 2.90584 3.74328 2.90584 3.74328L 5.8074 3.70696Z"/>
<path id="path26_fill" d="M 0.326434 39.0937C 4.78757 29.9743 7.54404 0.363325 7.54404 0.0363325L 7.18134 8.87023e-06C 7.14507 0.290669 4.42487 29.8653 0 38.9121L 0.326434 39.0937Z"/>
<path id="path27_stroke" d="M 0 2.54327L -0.249367 2.52549L -0.265929 2.75776L -0.0354156 2.79075L 0 2.54327ZM -0.0680197 -0.017781L -0.249367 2.52549L 0.249367 2.56105L 0.430714 0.017781L -0.0680197 -0.017781ZM -0.0354156 2.79075L 1.23401 2.97241L 1.30485 2.47746L 0.0354156 2.29579L -0.0354156 2.79075Z"/>
<path id="path28_stroke" d="M 0 0C -0.124197 0.216968 -0.124137 0.217002 -0.124072 0.21704C -0.124043 0.217056 -0.123973 0.217096 -0.123917 0.217128C -0.123803 0.217193 -0.123671 0.217269 -0.123519 0.217355C -0.123215 0.217528 -0.122833 0.217746 -0.122374 0.218006C -0.121456 0.218526 -0.120231 0.219218 -0.118704 0.220075C -0.115649 0.22179 -0.111387 0.224165 -0.105967 0.227145C -0.0951286 0.233104 -0.0796467 0.241488 -0.0599235 0.251846C -0.0205013 0.27255 0.0360099 0.301217 0.10638 0.334214C 0.246726 0.400022 0.444222 0.484005 0.672655 0.556267C 1.11737 0.696946 1.73238 0.810471 2.26915 0.595388L 2.08318 0.131261C 1.71322 0.279503 1.24015 0.211365 0.823459 0.0795511C 0.621192 0.0155664 0.44466 -0.0594049 0.318652 -0.11849C 0.255846 -0.14794 0.206099 -0.173204 0.172557 -0.190819C 0.155798 -0.199621 0.143122 -0.206493 0.134922 -0.211001C 0.130824 -0.213255 0.127847 -0.214915 0.126042 -0.215929C 0.12514 -0.216435 0.124531 -0.21678 0.124221 -0.216955C 0.124066 -0.217043 0.123986 -0.217088 0.123982 -0.217091C 0.12398 -0.217092 0.123997 -0.217082 0.124033 -0.217062C 0.12405 -0.217052 0.124092 -0.217028 0.124101 -0.217023C 0.124146 -0.216997 0.124197 -0.216968 0 0Z"/>
<path id="path29_stroke" d="M -0.546812 0L -0.546812 80.6581L 0.546788 80.6581L 0.546788 0L -0.546812 0Z"/>
<path id="path30_fill" d="M 1.26943 0L -4.42742e-06 7.81148L 2.53886 7.81148L 1.26943 0Z"/>
</defs>
</svg>

<svg xmlns="http://www.w3.org/2000/svg" xmlns:xlink="http://www.w3.org/1999/xlink" width="140" height="212"><g transform="translate(-134 -349)"><use xlink:href="#B" fill="#e9e3d7" x="139.259" y="363.351"/><use xlink:href="#C" fill="#f7fcff" x="144.845" y="368.438"/><use xlink:href="#D" fill="#736d91" x="134" y="356.085"/><use xlink:href="#E" fill="#e9e3d7" x="138.715" y="349"/><g fill="#bab7cc"><use xlink:href="#D" x="134" y="551.554"/><use xlink:href="#F" x="142.269" y="366.985"/></g><g fill="#201849"><use xlink:href="#G" x="149.523" y="374.978"/><use xlink:href="#G" x="149.523" y="382.971"/><use xlink:href="#G" x="149.523" y="393.144"/><use xlink:href="#H" x="149.523" y="401.355"/></g><mask id="A"><use xlink:href="#I" transform="matrix(-1 0 0 1 264 368)" fill="#f7fcff"/></mask><g mask="url(#A)"><use xlink:href="#J" transform="matrix(-1 0 0 1 245.855 531.171)" fill="#2eb5ff"/></g><use xlink:href="#K" transform="matrix(-1 0 0 1 230.418 442.736)" fill="#201849"/><use xlink:href="#L" transform="matrix(-1 0 0 1 229.823 447.17)" fill="#bab7cc"/><use xlink:href="#M" transform="matrix(-1 0 0 1 241.503 450.981)" fill="#003c5d"/><use xlink:href="#N" transform="matrix(-1 0 0 1 209.853 422.068)" fill="#ffddba"/><use xlink:href="#O" transform="matrix(-1 0 0 1 213.615 415.452)" fill="#fca664"/><g fill="#22164c"><use xlink:href="#P" transform="matrix(-1 0 0 1 210.746 431.402)"/><use xlink:href="#Q" transform="matrix(-1 0 0 1 205.305 430.784)"/><use xlink:href="#R" transform="matrix(-1 0 0 1 204.979 441.648)" opacity=".008"/></g><g fill="#ffddba"><use xlink:href="#S" transform="matrix(-1 0 0 1 194.968 430.941)"/><use xlink:href="#T" transform="matrix(-1 0 0 1 250.69 446.689)"/></g><g fill="#fff"><use xlink:href="#U" transform="matrix(-1 0 0 1 230.839 507.446)"/><use xlink:href="#V" transform="matrix(-1 0 0 1 231.02 507.228)"/><use xlink:href="#W" transform="matrix(-1 0 0 1 231.019 505.303)"/></g><use xlink:href="#X" transform="matrix(-1 0 0 1 231.165 505.157)" fill="#22164c"/><use xlink:href="#Y" transform="matrix(-1 0 0 1 229.497 512.278)" fill="#ffb077"/><g fill="#ffddba"><use xlink:href="#Z" transform="matrix(-1 0 0 1 232.62 486.228)"/><use xlink:href="#a" transform="matrix(-1 0 0 1 220.942 514.021)"/></g><g fill="#22164c"><use xlink:href="#b" transform="matrix(-1 0 0 1 237.041 456.508)"/><use xlink:href="#c" transform="matrix(-1 0 0 1 208.025 432.565)"/><use xlink:href="#d" transform="matrix(-1 0 0 1 208.025 437.651)"/></g><g fill="#201849"><use xlink:href="#e" x="142.451" y="367.53"/><use xlink:href="#f" x="141.181" y="446.371"/></g></g><defs><path id="B" d="M130.098 0H0v190.382h130.098V0z"/><path id="C" d="M118.89 0H0v180.21h118.89V0z"/><path id="D" d="M140 0H0v9.446h140V0z"/><path id="E" d="M130.57 0H0v6.903h130.57V0z"/><path id="F" d="M124.04 0H0v41.42h124.04V0z"/><path id="G" d="M0 .547h109.534V-.547H0V.547z"/><path id="H" d="M.005 1.564L109.54.547l-.01-1.094L-.005.47l.01 1.094z"/><path id="I" d="M126 0H0v181h126V0z"/><path id="J" d="M71.995.036s3.083 8.175 4 13.843c1.052 6.65-4.39 61.838-4.39 61.838l.4 75.717h-17.59L48.82 75.717l-1.45-52.646-23.394 56.06 1.16 71.866-18.86.436L0 77.388 20.456 0h51.54v.036z"/><path id="K" d="M.05.62l.98 6.903c.11.29.435.545.762.618l9.43 2.543c.544.182.87-.145.69-.58l-1.233-6.395c-.11-.29-.435-.545-.762-.618L.74.038C.195-.108-.13.183.05.62z"/><path id="L" d="M0 0l.254 1.708 10.808 2.76-.326-1.67L0 0z"/><path id="M" d="M.001 28.816c-.073.145 3.953-9.92 8.995-16.132C16.14 3.892 29.633 2.51 29.633 2.51s0 .036.036.036C39.462-.214 48.493.004 48.493.004l11.534 2.834 1.668.4c5.223 1.344 15.922 3.488 18.787 8.102 7.145 11.554 4.606 23.834 4.606 23.834H69.566l-1.415 20.89L70 81.062l-28.254 5.34c-6.928 1.308-14 1.417-20.928.327l-7.363-1.163s1.306-29.43 3.808-52.79L.001 28.816z"/><path id="N" d="M4.8 30.443l1.088-8.61s-1.378-.545-3.12-.872C-1.618 20.052.522 5.192.522 5.192S3.06-1.13 10.06.178c6.964 1.308 12.114 12.57 11.68 16.277-.3 2.507 1.45 14.46 1.45 14.46l-16.54 6.83-1.85-7.303z"/><path id="O" d="M6.352 11.3l6.42-1.417C18.067 16.786 25.466 23 25.466 23s2.25-7.158.3-12.716c-2.32-6.685-13.53-5.922-13.53-5.922s-4.316.908-7.072 1.163c-.87.073-2.83.98-2.466 2.144.326 1.1 2.61 1.017 3.482 1.054a16.7 16.7 0 0 0 8.378-1.78c1.306-.654 2.54-1.526 3.953-1.89-.762-1.962-2.938-3.016-5.04-3.16-.907-.073-1.777 0-2.684-.182-.87-.182-1.74-.7-2.067-1.526-.653.29-1.016 1.1-.834 1.78-1.27.145-2.61-.618-3.192-1.78-.58.4-.87 1.163-.69 1.853-.544-.073-1.124-.182-1.56-.545S1.782.436 2.144 0C.73 1.344-.068 3.343.005 5.305.04 7.775 3.74 11.88 6.352 11.3z"/><path id="P" d="M.69 1.38a.69.69 0 0 0 .689-.69A.69.69 0 0 0 .689 0 .69.69 0 0 0 0 .69a.69.69 0 0 0 .689.69z"/><path id="Q" d="M.69 1.38a.69.69 0 0 0 .689-.69A.69.69 0 0 0 .689 0 .69.69 0 0 0 0 .69a.69.69 0 0 0 .689.69z"/><path id="R" d="M7.073 0S4.97 9.664 0 10.79l.98-8.61 1.233-.145c1.16-.11 2.32-.51 3.373-1.126L7.073 0z"/><path id="S" d="M0 1.66S1.56-.375 3.554.06 2.54 4.348 2.54 4.348L0 1.66z"/><path id="T" d="M15.572 13.016c.145-1.163.98-7.157 1.995-9.192.617-1.235 1.668-2.107 3.59-2.834 1.45-.51 3.917-.98 3.917-.98.18-.036.363.036.435.182.11.218 0 .51-.254.58l-2.176.58L27.105 1c.363-.036.725.218.798.618l.073.4a.73.73 0 0 1-.399.763L24.06 4.333l2.394-.254c.145-.036.3.11.254.254 0 .073-.036.182-.145.218l-3.7 1.635-.073.472c-.18 1.272-.834 2.434-1.813 3.234l-3.228 25.25 8.632 1.998S21.41 68.787 4.945 61.92C-9.2 55.998 11.038 20.138 15.572 13.016z"/><path id="U" d="M0 0l.87 18.71c.036.8.725 1.453 1.523 1.453H9.43c.798 0 1.487-.654 1.523-1.453L11.824 0H0z"/><path id="V" d="M11.39 6.685L12.005 0H0l.617 6.65c.3 3.088 3.047 5.414 6.13 4.978.073 0 .145-.036.218-.036 2.394-.4 4.207-2.47 4.425-4.905z"/><path id="W" d="M6.02 3.85c3.325 0 6.02-.862 6.02-1.926S9.346 0 6.02 0 0 .862 0 1.926 2.696 3.85 6.02 3.85z"/><path id="X" d="M6.166 4.142C3.12 4.142 0 3.38 0 2.07S3.12 0 6.166 0s6.166.763 6.166 2.07c-.036 1.308-3.155 2.07-6.166 2.07zm0-3.815c-3.518 0-5.84.908-5.84 1.744s2.358 1.744 5.84 1.744c3.518 0 5.84-.908 5.84-1.744S9.648.327 6.166.327z"/><path id="Y" d="M9.067 2.29C9.067.908 7.036 0 4.534 0S0 .908 0 2.29l.036 5.377.036 2.907c.363 3.887 1.813 3.996 4.39 4.033l.762-.036c2.067-.182 3.446.436 3.627-3.524l.145-6.25c.073-.036.073-2.47.073-2.507z"/><path id="Z" d="M3.63 38.512h8.487c1.922.254 3.663.036 5.332-.254l.58-.11 3.482.11c1.56.218 23.757.436 34.927 1.78C70.076 41.637 76.206 0 76.206 0H60.682l-8.27 26.16-31.953 5.922-4.824-1.126-13.42-.036c-.3 0-.544.29-.544.58a.55.55 0 0 0 .471.545l6.13.98H.62a.67.67 0 0 0-.617.763c.036.327.363.58.69.58l7.58.472-7.073.472c-.254.036-.472.218-.508.472-.036.327.218.654.544.654l7.036.4-4.642.545c-.363 0-.653.327-.58.7.11.254.326.436.58.436z"/><path id="a" d="M5.807 3.707L.476.001C.077.074-.177.292.15.91s2.756 2.834 2.756 2.834l2.902-.036z"/><path id="b" d="M.326 39.094C4.788 29.974 7.544.363 7.544.036L7.18 0C7.145.29 4.425 29.865 0 38.912l.326.182z"/><path id="c" d="M0 2.543l-.25-.018-.017.232.23.033L0 2.543zm-.068-2.56l-.18 2.543.5.036L.43.018l-.5-.036zm.033 2.81l1.27.182.07-.495-1.27-.182-.07.495z"/><path id="d" d="M0 0l-.124.217.018.01.046.025.166.082a4.67 4.67 0 0 0 .566.222c.445.14 1.06.254 1.596.04L2.083.13C1.713.28 1.24.21.823.08a4.17 4.17 0 0 1-.505-.198L.173-.19.135-.21C.124-.217.124-.217 0 0z"/><path id="e" d="M-.547 0v80.658H.547V0H-.547z"/><path id="f" d="M1.27 0L0 7.81h2.54L1.27 0z"/></defs></svg>
